X:1
T:Der allererste Catechist
T:André Vierendeels
T:Melody by Georg Vogler (1625) (Soprano voice)
T:Source : Catechismus---Würzburg---J.Volmari---1652. Editor :  André Vierendeels (06/0/17).
T:Notes : Original clef : C1, other voices supplied editorially Original note values have been halved Text Middle German
T:Der allererste Catechist
T:©
T:©
C:André Vierendeels
Z:©
%%score [ 1 2 3 ]
L:1/8
Q:1/4=120
M:2/2
K:C
V:1 treble nm="Soprano" snm="S"
V:2 treble nm="Alto"
V:3 treble-8 nm="Bar" snm="Bar"
V:1
"^1)" C4 F4 | G4 A4 | G2 c4 B2 | c4 z4 | c4 c2 c2 | B2 A4 G2- | G2 ^F2 G4 | z4 G4 | A2 A2 B4 | %9
w: Der al-|ler- er-|ste Ca- te-|chist|der Men- schen,|und der En-|* gel, ist|die|hei- li- ge|
w: Die En-|gel ha-|ben al- le-|sampt|auff sich ge-|nom- men die-|* ses Ampt.|A-|dam desz- glei-|
 B4 c4 | A4 !fermata!^G4 | E4 G4 | A4 c2 B2- | B2 A4 G2 | A4 z4 | E4 F2 G2 | E4 G2 A2- | A2 B2 c4 | %18
w: Drey- fal-|tig- keit,|wel- che|im Gar- ten|_ sich er-|zeicht,|den Baum ver-|bott, ver- zug|_ nicht lang,|
w: chen sei-|ne Kind.|Zur Tu-|gend un- der-|* richt ge-|schwind.|Seth, E- noch,|und der thre-|* we Mann|
 z4 c4 | B2 A2 d2 c2- | c2 B2 B4 | A8 |] %22
w: und|lehrt wer tret- ten|_ solt die|Schlang.|
w: No-|e, zu- gleich mit|_ A- bra-|ham|
V:2
"^2)""^1)" C4 A,2 D2 | E4 F4 | D2 E2 D4 | E4 z4 | G4 E2 G2 | G2 C4 B,2 | A,4 B,4 | z4 B,4 | %8
w: Der al- *|ler- er-|ste Ca- te-|chist|der Men- schen,|und der En-|gel, ist|die|
w: Kein Pa- *|tri- arch|war noch Pro-|phet,|der nicht sein|Völck- lein leh-|ren thät,|da|
 C2 C2 D4 | G4 E4 | F4 !fermata!E4 | B,4 E4 | E4 F2 D2- | D2 D2 B,4 | C4 z4 | C4 A,2 B,2 | %16
w: hei- li- ge|Drey- fal-|tig- keit,|wel- che|im Gar- ten|_ sich er-|zeicht,|den Baum ver-|
w: sei- ne Moy-|ses füh-|ret an,|wel- chen|zwo Seu- len|_ ihm die|Bahn.|To- bi- as|
 C4 E2 C2- | C2 D2 E4 | z4 E4 | D2 E2 F2 E2- | E2 E2 B,4 | C8 |] %22
w: bott, ver- zug|_ nicht lang,|und|lehrt wer tret- ten|_ solt die|Schlang.|
w: hat treff- lich|_ ge- lehrt|den|Sohn wel- chem ihm|_ Gott be-|schert.|
V:3
"^3)""^1)""^4)" C4 D4 | C4 F4 | G2 C2 G4 | C4 z4 | E4 C2 C2 | E2 F4 G2 | D4 G4 | z4 G4 | F2 A2 G4 | %9
w: Der al-|ler- er-|ste Ca- te-|chist|der Men- schen,|und der En-|gel, ist|die|hei- li- ge|
w: Im ne-|wen Ge-|sätz hat Gott|b'reyt|zum Leh- rer|der Ge- rech-|tig- keit,|sein|en- ni- gen|
 E4 C4 | D4 !fermata!E4 | E4 E4 | A4 F2 G2- | G2 D2 E4 | A,4 z4 | A4 F2 E2 | C4 C2 F2- | F2 D2 C4 | %18
w: Drey- fal-|tig- keit,|wel- che|im Gar- ten|_ sich er-|zeicht,|den Baum ver-|bott, ver- zuch|_ nicht lang,|
w: Sohn Je-|sum Christ,|der a-|ler Welt zu|_ hö- ren|ist,|mit Wor- ten|und ex- em-|* pel gut|
 z4 C4 | G2 A2 D2 A2- | A2 G2 E4 | A8 |] %22
w: und|lehrt wer tret- ten|_ solt die|Schlang.|
w: lehrt,|er ver- giest dar-|* bey kein|Blut.|

